X:1
T:Title
%%score { ( 1 3 ) | ( 2 4 ) }
L:1/8
M:4/4
K:Bb
V:1 treble nm="Grand Piano"
V:3 treble 
V:2 bass 
V:4 bass 
V:1
 z4 z2[Q:1/4=100] [B,D][CE] | [DF]2 [DF]>[EG] [DF]2 [DB][Ec] | [Fd]2 [Ge]>[^FB] [=Fd]2 [Fc][FB] | %3
 [EG]2 [EG][FA] [GB][^FA] [GB]>[EG] | [DF]6 [DF][DF] | [EG]2 [EG][FA] [Ac][GB][FA][EG] | %6
 [DF]2 [FB]>c d2 [Fd][Fd] | [Fc]2 [DFB][CFA] [CA]B [C=EA]>[B,EG] |[M:3/4] [A,F]6 | %9
[M:1/4] [A,EF][A,EF] |[M:4/4] [DF]2 [EG]>[DF] [DF]2 [DB]>[Ec] | [Fd]6 z2 | %12
 [EG]2 [EG]>[FA] [GB]2 [FA]>[EG] | F4 z4 | [Fd]2 [Fd]>[Ec] [DB]2 [EA][FB] | %15
[M:9/8] [Ec]2 [Gd]- [Gd]/[Gd]/ [Ge]2- [Ge][Gd][Gc] |[M:4/4] B2 FB BA G>A |[M:3/4] [DB]6 |] %18
V:2
 z4 z2 [B,,F,][B,,F,] | [B,,F,]2 [B,,B,]>[B,,B,] [B,,B,]2 [B,,B,][B,,B,] | %2
 [B,,B,]2 [B,,B,]>[B,,B,] [B,,B,]2 [C,A,][D,B,] | [E,B,]2 [E,B,][E,B,] [E,B,]2 [E,B,]>[E,B,] | %4
 [B,,B,]6 [B,,B,][B,,B,] | [E,B,]2 [E,B,][E,B,] [E,B,]2 [E,B,][E,B,] | %6
 [B,,B,]2 [D,B,]>[K:treble][F,A,F] [B,F]2[K:bass] [B,,B,][B,,B,] | [C,A,]2 C,C, z D C,>C, | %8
[M:3/4] F,6 |[M:1/4] F,F, |[M:4/4] [B,,B,]2 [B,,B,]>[B,,B,] [B,,B,]2 [B,,B,]>[B,,B,] | %11
 [B,,B,]2 B,,>B,, B,,2 [C,A,][D,B,] | [E,B,]2 [E,B,]>[E,B,] [E,B,]2 [E,B,]>[E,B,] | %13
 [B,,B,]2 [C,A,]2 [D,B,]2 [F,A,E][F,A,E] | [B,,B,]2 [B,,B,]>[B,,F,] [B,,F,]2 [C,F,][D,F,] | %15
[M:9/8] [E,G,]2 [D,=B,]- [D,B,]/[D,B,]/ [C,C]2- [C,C][D,B,][E,C] | %16
[M:4/4] [F,DF]2 [F,D][F,DF] [F,CE]2 [F,B,E]>[F,CE] |[M:3/4] [B,,B,]6 |] %18
V:3
 x8 | x8 | x8 | x8 | x8 | x8 | x8 | z4 =E2 z2 |[M:3/4] x6 |[M:1/4] x2 |[M:4/4] x8 | %11
 z2 B,>B, B,2 [Fc][FB] | x8 | D2 E2 F2 FF | x8 |[M:9/8] x9 |[M:4/4] x8 |[M:3/4] x6 |] %18
V:4
 x8 | x8 | x8 | x8 | x8 | x8 | x7/2[K:treble] x5/2[K:bass] x2 | z4 C,2 z2 |[M:3/4] x6 |[M:1/4] x2 | %10
[M:4/4] x8 | x8 | x8 | x8 | x8 |[M:9/8] x9 |[M:4/4] x8 |[M:3/4] x6 |] %18

